images/wings_logo.svg

<svg height="250" viewBox="0 0 250 250" width="250" xmlns="http://www.w3.org/2000/svg"><g fill="#393c4c"><path d="m126.820312 160.253906.574219 9.265625.890625-8.359375 6.121094-49.152344h3.460938l5.988281 49.152344.84375 8.5625.667969-9.46875 4.835937-48.148437h4.125l-7.542969 70.410156h-3.726562l-6.390625-51.371094-.488281-5.339843-.488282 5.339843-6.609375 51.371094h-3.726562l-7.5-70.410156h4.082031zm0 0"/><path d="m162.800781 182.414062h-4.082031v-70.40625h4.082031zm0 0"/><path d="m193.417969 182.414062h-4.128907l-15.617187-54.292968v54.292968h-4.125v-70.40625h4.125l15.664063 54.492188v-54.492188h4.082031zm0 0"/><path d="m222.878906 173.246094c-1.066406 3.425781-2.53125 5.945312-4.394531 7.65625-1.863281 1.710937-4.082031 2.519531-6.566406 2.519531-2.527344 0-4.789063-1.3125-6.742188-4.03125s-3.460937-6.546875-4.570312-11.480469c-1.066407-4.9375-1.640625-10.679687-1.640625-17.226562v-6.144532c0-10.574218 1.109375-18.835937 3.28125-24.675781 2.175781-5.84375 5.234375-8.761719 9.183594-8.761719 3.242187 0 5.859374 1.914063 7.808593 5.640626 1.953125 3.726562 3.195313 9.0625 3.640625 16.011718h-4.082031c-.753906-9.367187-3.195313-14-7.320313-14-2.75 0-4.835937 2.21875-6.210937 6.546875-1.421875 4.332031-2.132813 10.679688-2.132813 19.039063v5.742187c0 7.957031.800782 14.199219 2.398438 18.835938 1.597656 4.632812 3.726562 6.949219 6.476562 6.949219 1.554688 0 2.882813-.402344 4.039063-1.109376 1.152344-.804687 2.085937-2.113281 2.839844-3.929687v-15.8125h-7.1875v-7.554687h11.269531zm0 0"/><path d="m238.140625 151.085938c-3.503906-2.316407-6.078125-5.136719-7.675781-8.460938-1.597656-3.320312-2.394532-7.453125-2.394532-12.386719 0-5.539062.976563-10.171875 2.925782-13.800781 1.953125-3.625 4.484375-5.4375 7.632812-5.4375 2.128906 0 4.039063.90625 5.679688 2.820312 1.6875 1.914063 2.972656 4.429688 3.859375 7.753907.933593 3.324219 1.375 6.851562 1.375 10.777343h-4.125c0-4.230468-.578125-7.652343-1.773438-10.070312-1.199219-2.417969-2.886719-3.625-5.058593-3.625-1.996094 0-3.59375 1.003906-4.703126 3.019531-1.109374 2.015625-1.6875 4.835938-1.6875 8.359375 0 2.921875.53125 5.339844 1.597657 7.253906 1.066406 2.015626 2.882812 3.828126 5.457031 5.4375 2.574219 1.613282 4.613281 3.425782 6.035156 5.441407 1.464844 2.011719 2.527344 4.328125 3.238282 6.949219.710937 2.617187 1.066406 5.742187 1.066406 9.367187 0 5.742187-.976563 10.273437-2.929688 13.699219-1.953125 3.425781-4.570312 5.136718-7.851562 5.136718-2.132813 0-4.128906-.90625-5.945313-2.820312-1.867187-1.8125-3.285156-4.433594-4.261719-7.65625-1.019531-3.222656-1.507812-6.847656-1.507812-10.976562h4.125c0 4.230468.710938 7.652343 2.085938 10.070312s3.238281 3.726562 5.546874 3.726562c2.175782 0 3.816407-1.007812 4.96875-3.019531 1.152344-2.015625 1.730469-4.734375 1.730469-8.160156s-.53125-6.144531-1.597656-7.957031c-1.0625-1.8125-3.015625-3.625-5.8125-5.441406zm0 0"/><path d="m7.867188 48.246094 59.761718 6.648437 13.933594 64.667969-20.941406 44.015625-8.785156-82.496094zm0 0"/></g><path d="m13.855469 250.503906 98.855469-211.121094 8.738281 53.386719-11.179688-8.867187v53.890625zm0 0" fill="#a9d6e6"/><path d="m-.253906.605469 73.34375 10.171875 28.394531 137.289062-29.636719 34.648438-16.109375-140.511719zm0 0" fill="#5ab9e1"/></svg>

<!-- Generator: Adobe Illustrator 19.1.1, SVG Export Plug-In . SVG Version: 6.00 Build 0)  -->
<svg xmlns="http://www.w3.org/2000/svg" xmlns:xlink="http://www.w3.org/1999/xlink" width="250px" height="250px" viewBox="0 0 250 250" version="1.1">
<g id="surface1">
<path style=" stroke:none;fill-rule:nonzero;fill:rgb(22.352941%,23.529412%,29.803923%);fill-opacity:1;" d="M 126.820312 160.253906 L 127.394531 169.519531 L 128.285156 161.160156 L 134.40625 112.007812 L 137.867188 112.007812 L 143.855469 161.160156 L 144.699219 169.722656 L 145.367188 160.253906 L 150.203125 112.105469 L 154.328125 112.105469 L 146.785156 182.515625 L 143.058594 182.515625 L 136.667969 131.144531 L 136.179688 125.804688 L 135.691406 131.144531 L 129.082031 182.515625 L 125.355469 182.515625 L 117.855469 112.105469 L 121.9375 112.105469 Z M 126.820312 160.253906 "/>
<path style=" stroke:none;fill-rule:nonzero;fill:rgb(22.352941%,23.529412%,29.803923%);fill-opacity:1;" d="M 162.800781 182.414062 L 158.71875 182.414062 L 158.71875 112.007812 L 162.800781 112.007812 Z M 162.800781 182.414062 "/>
<path style=" stroke:none;fill-rule:nonzero;fill:rgb(22.352941%,23.529412%,29.803923%);fill-opacity:1;" d="M 193.417969 182.414062 L 189.289062 182.414062 L 173.671875 128.121094 L 173.671875 182.414062 L 169.546875 182.414062 L 169.546875 112.007812 L 173.671875 112.007812 L 189.335938 166.5 L 189.335938 112.007812 L 193.417969 112.007812 Z M 193.417969 182.414062 "/>
<path style=" stroke:none;fill-rule:nonzero;fill:rgb(22.352941%,23.529412%,29.803923%);fill-opacity:1;" d="M 222.878906 173.246094 C 221.8125 176.671875 220.347656 179.191406 218.484375 180.902344 C 216.621094 182.613281 214.402344 183.421875 211.917969 183.421875 C 209.390625 183.421875 207.128906 182.109375 205.175781 179.390625 C 203.222656 176.671875 201.714844 172.84375 200.605469 167.910156 C 199.539062 162.972656 198.964844 157.230469 198.964844 150.683594 L 198.964844 144.539062 C 198.964844 133.964844 200.074219 125.703125 202.246094 119.863281 C 204.421875 114.019531 207.480469 111.101562 211.429688 111.101562 C 214.671875 111.101562 217.289062 113.015625 219.238281 116.742188 C 221.191406 120.46875 222.433594 125.804688 222.878906 132.753906 L 218.796875 132.753906 C 218.042969 123.386719 215.601562 118.753906 211.476562 118.753906 C 208.726562 118.753906 206.640625 120.972656 205.265625 125.300781 C 203.84375 129.632812 203.132812 135.980469 203.132812 144.339844 L 203.132812 150.082031 C 203.132812 158.039062 203.933594 164.28125 205.53125 168.917969 C 207.128906 173.550781 209.257812 175.867188 212.007812 175.867188 C 213.5625 175.867188 214.890625 175.464844 216.046875 174.757812 C 217.199219 173.953125 218.132812 172.644531 218.886719 170.828125 L 218.886719 155.015625 L 211.699219 155.015625 L 211.699219 147.460938 L 222.96875 147.460938 Z M 222.878906 173.246094 "/>
<path style=" stroke:none;fill-rule:nonzero;fill:rgb(22.352941%,23.529412%,29.803923%);fill-opacity:1;" d="M 238.140625 151.085938 C 234.636719 148.769531 232.0625 145.949219 230.464844 142.625 C 228.867188 139.304688 228.070312 135.171875 228.070312 130.238281 C 228.070312 124.699219 229.046875 120.066406 230.996094 116.4375 C 232.949219 112.8125 235.480469 111 238.628906 111 C 240.757812 111 242.667969 111.90625 244.308594 113.820312 C 245.996094 115.734375 247.28125 118.25 248.167969 121.574219 C 249.101562 124.898438 249.542969 128.425781 249.542969 132.351562 L 245.417969 132.351562 C 245.417969 128.121094 244.839844 124.699219 243.644531 122.28125 C 242.445312 119.863281 240.757812 118.65625 238.585938 118.65625 C 236.589844 118.65625 234.992188 119.660156 233.882812 121.675781 C 232.773438 123.691406 232.195312 126.511719 232.195312 130.035156 C 232.195312 132.957031 232.726562 135.375 233.792969 137.289062 C 234.859375 139.304688 236.675781 141.117188 239.25 142.726562 C 241.824219 144.339844 243.863281 146.152344 245.285156 148.167969 C 246.75 150.179688 247.8125 152.496094 248.523438 155.117188 C 249.234375 157.734375 249.589844 160.859375 249.589844 164.484375 C 249.589844 170.226562 248.613281 174.757812 246.660156 178.183594 C 244.707031 181.609375 242.089844 183.320312 238.808594 183.320312 C 236.675781 183.320312 234.679688 182.414062 232.863281 180.5 C 230.996094 178.6875 229.578125 176.066406 228.601562 172.84375 C 227.582031 169.621094 227.09375 165.996094 227.09375 161.867188 L 231.21875 161.867188 C 231.21875 166.097656 231.929688 169.519531 233.304688 171.9375 C 234.679688 174.355469 236.542969 175.664062 238.851562 175.664062 C 241.027344 175.664062 242.667969 174.65625 243.820312 172.644531 C 244.972656 170.628906 245.550781 167.910156 245.550781 164.484375 C 245.550781 161.058594 245.019531 158.339844 243.953125 156.527344 C 242.890625 154.714844 240.9375 152.902344 238.140625 151.085938 Z M 238.140625 151.085938 "/>
<path style=" stroke:none;fill-rule:nonzero;fill:rgb(22.352941%,23.529412%,29.803923%);fill-opacity:1;" d="M 7.867188 48.246094 L 67.628906 54.894531 L 81.5625 119.5625 L 60.621094 163.578125 L 51.835938 81.082031 Z M 7.867188 48.246094 "/>
<path style=" stroke:none;fill-rule:nonzero;fill:rgb(66.274512%,83.92157%,90.196079%);fill-opacity:1;" d="M 13.855469 250.503906 L 112.710938 39.382812 L 121.449219 92.769531 L 110.269531 83.902344 L 110.269531 137.792969 Z M 13.855469 250.503906 "/>
<path style=" stroke:none;fill-rule:nonzero;fill:rgb(35.294119%,72.549021%,88.235295%);fill-opacity:1;" d="M -0.253906 0.605469 L 73.089844 10.777344 L 101.484375 148.066406 L 71.847656 182.714844 L 55.738281 42.203125 Z M -0.253906 0.605469 "/>
</g>
</svg>
